X: 1
T:Fermoy Lasses
M:4/4
L:1/8
Q:220
C:Trad Irish
K:Em
GE E2 BE E2|GEEA BcBA|GE E2 BEGB|AFDF AcBA|!
GE E2 BE E2|GEEA BcBA|G2 GF GBdB|AFDF AcBA:|!
G2 BG dGBG|G2 Bd ef g2|G2 BG dGBG|AFDF AcBA|!
G2 BG dGBG|G2 Bd ef g2|gage dedB|AFDF AcBA:|!
